X: 24613
T: Mac's Corner
R: barndance
M: 4/4
K: Dmajor
|:fAdf abaf|gBeg b2ag|fAdf abaf|edcd efge|
fAdf abaf|gBeg b2ag|fAdf edce|1 (3ded ced2ag:|2 (3ded ce d4||
|:B2dB A3d|B2dB A3d|B2dB A2de|f2df efdc|
B2dB A3 d|B2dB A2de|f2df (3efe dc|1 dfec d4:|2 dfec d4||

